SVG_Azure_All/Application Field Service.svg

<?xml version="1.0" encoding="UTF-8" standalone="no"?>
<!-- Generated by Microsoft Visio, SVG Export Application Field Service.svg Page-1 -->

<svg
   xmlns:dc="http://purl.org/dc/elements/1.1/"
   xmlns:cc="http://creativecommons.org/ns#"
   xmlns:rdf="http://www.w3.org/1999/02/22-rdf-syntax-ns#"
   xmlns:svg="http://www.w3.org/2000/svg"
   xmlns="http://www.w3.org/2000/svg"
   xmlns:sodipodi="http://sodipodi.sourceforge.net/DTD/sodipodi-0.dtd"
   xmlns:inkscape="http://www.inkscape.org/namespaces/inkscape"
   width="0.78456682in"
   height="0.74360949in"
   viewBox="0 0 56.488809 53.539677"
   xml:space="preserve"
   class="st6"
   version="1.1"
   id="svg58"
   sodipodi:docname="Application Field Service.svg"
   style="font-size:12px;overflow:visible;color-interpolation-filters:sRGB;fill:none;fill-rule:evenodd;stroke-linecap:square;stroke-miterlimit:3"
   inkscape:version="0.92.5 (2060ec1f9f, 2020-04-08)"><metadata
   id="metadata62"><rdf:RDF><cc:Work
       rdf:about=""><dc:format>image/svg+xml</dc:format><dc:type
         rdf:resource="http://purl.org/dc/dcmitype/StillImage" /></cc:Work></rdf:RDF></metadata><sodipodi:namedview
   pagecolor="#ffffff"
   bordercolor="#666666"
   borderopacity="1"
   objecttolerance="10"
   gridtolerance="10"
   guidetolerance="10"
   inkscape:pageopacity="0"
   inkscape:pageshadow="2"
   inkscape:window-width="640"
   inkscape:window-height="480"
   id="namedview60"
   showgrid="false"
   inkscape:zoom="1.8979166"
   inkscape:cx="37.66363"
   inkscape:cy="16.392534"
   inkscape:window-x="0"
   inkscape:window-y="0"
   inkscape:window-maximized="0"
   inkscape:current-layer="svg58" />
	<style
   type="text/css"
   id="style2">
	<![CDATA[
		.st1 {fill:url(#grad0-7);stroke:none;stroke-linecap:butt;stroke-width:0.75}
		.st2 {fill:#000000;fill-opacity:0.18;stroke:none;stroke-linecap:butt;stroke-width:0.75}
		.st3 {fill:#000000;fill-opacity:0.2;stroke:none;stroke-linecap:butt;stroke-width:0.75}
		.st4 {fill:url(#grad0-15);stroke:none;stroke-linecap:butt;stroke-width:0.75}
		.st5 {fill:url(#grad0-19);stroke:none;stroke-linecap:butt;stroke-width:0.75}
		.st6 {fill:none;fill-rule:evenodd;font-size:12px;overflow:visible;stroke-linecap:square;stroke-miterlimit:3}
	]]>
	</style>

	<defs
   id="Patterns_And_Gradients">
		<linearGradient
   id="grad0-7"
   x1="0.088494337"
   y1="52.964962"
   x2="50.716751"
   y2="52.964962"
   gradientTransform="scale(1.1157565,0.89625289)"
   gradientUnits="userSpaceOnUse">
			<stop
   offset="0"
   stop-color="#f5b240"
   stop-opacity="1"
   id="stop4" />
			<stop
   offset="0.555"
   stop-color="#ea8200"
   stop-opacity="1"
   id="stop6" />
		</linearGradient>
		<linearGradient
   id="grad0-15"
   x1="1.6969486"
   y1="42.323442"
   x2="41.254038"
   y2="42.323442"
   gradientTransform="scale(0.88100421,1.1350683)"
   gradientUnits="userSpaceOnUse">
			<stop
   offset="0"
   stop-color="#fdd340"
   stop-opacity="1"
   id="stop9" />
			<stop
   offset="1"
   stop-color="#f9ae00"
   stop-opacity="1"
   id="stop11" />
		</linearGradient>
		<linearGradient
   id="grad0-19"
   x1="0"
   y1="72.579986"
   x2="21.111175"
   y2="72.579986"
   gradientTransform="scale(1.0046243,0.99539699)"
   gradientUnits="userSpaceOnUse">
			<stop
   offset="0"
   stop-color="#ffed80"
   stop-opacity="1"
   id="stop14" />
			<stop
   offset="1"
   stop-color="#fcd680"
   stop-opacity="1"
   id="stop16" />
		</linearGradient>
	</defs>
	<g
   id="g56"
   transform="translate(-5.7680281,-5.3845967)">
		<title
   id="title20">Page-1</title>
		<g
   id="group9775-1"
   transform="translate(5.66929,-34.0157)">
			<title
   id="title22">Application Field Service</title>
			<g
   id="group9776-2">
				<title
   id="title24">Sheet.9776</title>
				<g
   id="group9777-3">
					<title
   id="title26">Sheet.9777</title>
					<g
   id="shape9778-4"
   transform="translate(0,-8.06988)">
						<title
   id="title28">Sheet.9778</title>
						<path
   d="m 12.6,48.69 c 0.42,-0.75 1.21,-1.22 2.07,-1.22 h 26.61 c 0.84,0 1.62,0.45 2.04,1.17 l 12.95,22.13 c 0.42,0.72 0.42,1.59 0.02,2.31 L 45.82,91.65 c -0.86,1.52 -3.03,1.61 -4.01,0.16 l -11.52,-17 C 29.36,73.43 27.31,73.43 26.38,74.8 L 14.86,91.81 c -0.98,1.45 -3.16,1.36 -4.02,-0.17 L 0.4,73.05 C 0,72.35 0,71.5 0.39,70.79 Z"
   class="st1"
   id="path30"
   inkscape:connector-curvature="0"
   style="fill:url(#grad0-7);stroke:none;stroke-width:0.75;stroke-linecap:butt" />
					</g>
					<g
   id="shape9779-8"
   transform="translate(9.45827,-0.945627)">
						<title
   id="title33">Sheet.9779</title>
						<path
   d="m 5.93,53.8 c 6.93,-7.68 19.05,-7.68 25.98,0 5.48,6.07 5.93,15.11 1.08,21.69 L 20.82,91.98 c -0.94,1.28 -2.86,1.28 -3.8,0 L 4.85,75.49 C 0,68.91 0.45,59.87 5.93,53.8 Z"
   class="st2"
   id="path35"
   inkscape:connector-curvature="0"
   style="fill:#000000;fill-opacity:0.18000004;stroke:none;stroke-width:0.75;stroke-linecap:butt" />
					</g>
					<g
   id="shape9780-10"
   transform="translate(9.45827)">
						<title
   id="title38">Sheet.9780</title>
						<path
   d="m 5.93,53.8 c 6.93,-7.68 19.05,-7.68 25.98,0 5.48,6.07 5.93,15.11 1.08,21.69 L 20.82,91.98 c -0.94,1.28 -2.86,1.28 -3.8,0 L 4.85,75.49 C 0,68.91 0.45,59.87 5.93,53.8 Z"
   class="st3"
   id="path40"
   inkscape:connector-curvature="0"
   style="fill:#000000;fill-opacity:0.2;stroke:none;stroke-width:0.75;stroke-linecap:butt" />
					</g>
					<g
   id="shape9781-12"
   transform="translate(9.45827,-1.16744)">
						<title
   id="title43">Sheet.9781</title>
						<path
   d="m 5.93,53.8 c 6.93,-7.68 19.05,-7.68 25.98,0 5.48,6.07 5.93,15.11 1.08,21.69 L 20.82,91.98 c -0.94,1.28 -2.86,1.28 -3.8,0 L 4.85,75.49 C 0,68.91 0.45,59.87 5.93,53.8 Z"
   class="st4"
   id="path45"
   inkscape:connector-curvature="0"
   style="fill:url(#grad0-15);stroke:none;stroke-width:0.75;stroke-linecap:butt" />
					</g>
					<g
   id="shape9782-16"
   transform="translate(17.7733,-18.835)">
						<title
   id="title48">Sheet.9782</title>
						<ellipse
   cx="10.6044"
   cy="82.752899"
   rx="10.6044"
   ry="10.507"
   class="st5"
   id="ellipse50"
   style="fill:url(#grad0-19);stroke:none;stroke-width:0.75;stroke-linecap:butt" />
					</g>
				</g>
			</g>
		</g>
	</g>
</svg>

<?xml version="1.0" encoding="UTF-8" standalone="no"?>
<!DOCTYPE svg PUBLIC "-//W3C//DTD SVG 1.1//EN" "http://www.w3.org/Graphics/SVG/1.1/DTD/svg11.dtd">
<!-- Generated by Microsoft Visio, SVG Export Application Field Service.svg Page-1 -->
<svg xmlns="http://www.w3.org/2000/svg" xmlns:xlink="http://www.w3.org/1999/xlink" xmlns:ev="http://www.w3.org/2001/xml-events"
		width="0.944882in" height="1.29528in" viewBox="0 0 68.0315 93.2598" xml:space="preserve" color-interpolation-filters="sRGB"
		class="st6">
	<style type="text/css">
	<![CDATA[
		.st1 {fill:url(#grad0-7);stroke:none;stroke-linecap:butt;stroke-width:0.75}
		.st2 {fill:#000000;fill-opacity:0.18;stroke:none;stroke-linecap:butt;stroke-width:0.75}
		.st3 {fill:#000000;fill-opacity:0.2;stroke:none;stroke-linecap:butt;stroke-width:0.75}
		.st4 {fill:url(#grad0-15);stroke:none;stroke-linecap:butt;stroke-width:0.75}
		.st5 {fill:url(#grad0-19);stroke:none;stroke-linecap:butt;stroke-width:0.75}
		.st6 {fill:none;fill-rule:evenodd;font-size:12px;overflow:visible;stroke-linecap:square;stroke-miterlimit:3}
	]]>
	</style>

	<defs id="Patterns_And_Gradients">
		<linearGradient id="grad0-7" x1="0" y1="0" x2="1" y2="0" gradientTransform="rotate(32.194726287906 0.5 0.5)">
			<stop offset="0" stop-color="#f5b240" stop-opacity="1"/>
			<stop offset="0.555" stop-color="#ea8200" stop-opacity="1"/>
		</linearGradient>
		<linearGradient id="grad0-15" x1="0" y1="0" x2="1" y2="0" gradientTransform="rotate(22.184152494557 0.5 0.5)">
			<stop offset="0" stop-color="#fdd340" stop-opacity="1"/>
			<stop offset="1" stop-color="#f9ae00" stop-opacity="1"/>
		</linearGradient>
		<linearGradient id="grad0-19" x1="0" y1="0" x2="1" y2="0" gradientTransform="rotate(46.974368736321 0.5 0.5)">
			<stop offset="0" stop-color="#ffed80" stop-opacity="1"/>
			<stop offset="1" stop-color="#fcd680" stop-opacity="1"/>
		</linearGradient>
	</defs>
	<g>
		<title>Page-1</title>
		<g id="group9570-1" transform="translate(5.66929,-34.0157)">
			<title>Application Field Service</title>
			<g id="group9571-2">
				<title>Sheet.9571</title>
				<g id="group9572-3">
					<title>Sheet.9572</title>
					<g id="shape9573-4" transform="translate(0,-8.06988)">
						<title>Sheet.9573</title>
						<path d="M12.6 48.69 C13.02 47.94 13.81 47.47 14.67 47.47 L41.28 47.47 C42.12 47.47 42.9 47.92 43.32 48.64
									 L56.27 70.77 C56.69 71.49 56.69 72.36 56.29 73.08 L45.82 91.65 C44.96 93.17 42.79 93.26 41.81
									 91.81 L30.29 74.81 C29.36 73.43 27.31 73.43 26.38 74.8 L14.86 91.81 C13.88 93.26 11.7 93.17
									 10.84 91.64 L0.4 73.05 C0 72.35 0 71.5 0.39 70.79 L12.6 48.69 Z" class="st1"/>
					</g>
					<g id="shape9574-8" transform="translate(9.45827,-0.945627)">
						<title>Sheet.9574</title>
						<path d="M5.93 53.8 C12.86 46.12 24.98 46.12 31.91 53.8 C37.39 59.87 37.84 68.91 32.99 75.49 L20.82 91.98
									 C19.88 93.26 17.96 93.26 17.02 91.98 L4.85 75.49 C0 68.91 0.45 59.87 5.93 53.8 Z" class="st2"/>
					</g>
					<g id="shape9575-10" transform="translate(9.45827,1.42109E-14)">
						<title>Sheet.9575</title>
						<path d="M5.93 53.8 C12.86 46.12 24.98 46.12 31.91 53.8 C37.39 59.87 37.84 68.91 32.99 75.49 L20.82 91.98
									 C19.88 93.26 17.96 93.26 17.02 91.98 L4.85 75.49 C0 68.91 0.45 59.87 5.93 53.8 Z" class="st3"/>
					</g>
					<g id="shape9576-12" transform="translate(9.45827,-1.16744)">
						<title>Sheet.9576</title>
						<path d="M5.93 53.8 C12.86 46.12 24.98 46.12 31.91 53.8 C37.39 59.87 37.84 68.91 32.99 75.49 L20.82 91.98
									 C19.88 93.26 17.96 93.26 17.02 91.98 L4.85 75.49 C0 68.91 0.45 59.87 5.93 53.8 Z" class="st4"/>
					</g>
					<g id="shape9577-16" transform="translate(17.7733,-18.835)">
						<title>Sheet.9577</title>
						<ellipse cx="10.6044" cy="82.7529" rx="10.6044" ry="10.507" class="st5"/>
					</g>
				</g>
			</g>
		</g>
	</g>
</svg>
